spyder/images/dark/dock.svg

<svg width="24" height="24" viewBox="0 0 24 24" fill="none" xmlns="http://www.w3.org/2000/svg">
<path fill-rule="evenodd" clip-rule="evenodd" d="M19 4H5C3.89 4 3 4.9 3 6V18C3 18.5304 3.21071 19.0391 3.58579 19.4142C3.96086 19.7893 4.46957 20 5 20H9L7 18H5V8H19V18H17.6567L15.6567 20H19C19.5304 20 20.0391 19.7893 20.4142 19.4142C20.7893 19.0391 21 18.5304 21 18V6C21 5.46957 20.7893 4.96086 20.4142 4.58579C20.0391 4.21071 19.5304 4 19 4ZM13 10L13 16H16L12 20L8 16L11 16L11 10H13Z" fill="#FAFAFA"/>
</svg>

<svg xmlns="http://www.w3.org/2000/svg" width="24" height="24" fill="none"><path fill="#FAFAFA" fill-rule="evenodd" d="M19 4H5a2 2 0 0 0-2 2v12a2 2 0 0 0 2 2h4l-2-2H5V8h14v10h-1.343l-2 2H19a2 2 0 0 0 2-2V6a2 2 0 0 0-2-2Zm-6 6v6h3l-4 4-4-4h3v-6h2Z" clip-rule="evenodd"/></svg>
